X:116
T:Orange in Bloom
Z:Jack Campin, http://www.campin.me.uk/
F:Jack Campin's Nine-Note Tunebook
% last edit 03-02-2013
M:6/8
L:1/8
Q:3/8=84
N:Version of "The Rock and Wee Pickle Tow", the town march of Linlithgow.
N:When used as the Sherbourne morris dance it has a complicated
N:repeat pattern and slows down in places in the second part.
K:F
C|D>FD   C>FG|A>cA G2 A|F>DD C>FG|AFF F2
C|D>FD   C>FG|A>cA G2 A|F>DD C>FG|AFF F2:|
C|AGA/B/ c2 A|G>FG A>Bc|d>cA G>FG|AGF D2
C|D>FD   C>FG|A>cA G2 A|F>DD C>FG|A2F F2:|

